X: 5
T: The Swallow's Tail
R: reel
M: 4/4
L: 1/8
K: Emin
ed |BcBA BEE2 | BABc d3B| dBAF ADD2 | FDFA d2ed |BcBA BEE2 | BABc d3B | edBA edBA | B2 AF E2 :||GA |Beed e2dB| BABc d3B| dBAF ADD2 | FDFA d2ed |Beed Beed | BABc d3B | edBA edBA | B2 AF E2 :||


Tune 105	Setting 28532

